%

(Header)

(Generated by gcodetools from Inkscape.)

(Using default header. To add your own header create file "header" in the output dir.)

M3

(Header end.)

G21 (All units in mm)



(Start cutting path id: path839)

(Change tool to Default tool)



G00 Z0.100000

G00 X1.12110226684458140 Y0.50682372944058060



G01 Z-0.100000 F100.0(Penetrate)

G02 X1.0757364069241562 Y0.43015400210681337 Z-0.100000 I-33.065426 J-6.156190 F400.000000

G02 X0.9931372107208052 Y0.37933002546381434 Z-0.100000 I-39.874555 J19.310807

G02 X0.8955637056183129 Y0.38193761300324874 Z-0.100000 I-25.855730 J33.952251

G02 X0.80962318743775460 Y0.445886274418861250 Z-0.100000 I-5.163587 J30.404138

G02 X0.77382345306355330 Y0.5491817343774543 Z-0.100000 I20.867661 J34.223598

G02 X0.8096358956878423 Y0.6343339979932952 Z-0.100000 I51.732502 J22.003307

G02 X0.89289624251087420 Y0.6914741168587032 Z-0.100000 I56.560029 J-2.573824

G02 X0.99967763090961730 Y0.71138974318775130 Z-0.100000 I35.492732 J-18.974946

G02 X1.100454551698405 Y0.6808460368114869 Z-0.100000 I13.940941 J-25.269619

G02 X1.14015256871622880 Y0.60431316037549070 Z-0.100000 I-15.431389 J-35.193534

G02 X1.1384083192885341 Y0.5570862693253672 Z-0.100000 I-45.100707 J-25.670664

G02 X1.12110226684458140 Y0.50682372944058060 Z-0.100000 I-44.360941 J-11.584377

G01 X1.12110226684458140 Y0.50682372944058060 Z-0.100000

G00 Z0.100000



(End cutting path id: path839)





(Start cutting path id: path839)

(Change tool to Default tool)



G00 Z0.100000

G00 X1.12110226684458140 Y0.50682372944058060



G01 Z-0.100000 F100.0(Penetrate)

G02 X1.0757364069241562 Y0.43015400210681337 Z-0.100000 I-33.065426 J-6.156190 F400.000000

G02 X0.9931372107208052 Y0.37933002546381434 Z-0.100000 I-39.874555 J19.310807

G02 X0.8955637056183129 Y0.38193761300324874 Z-0.100000 I-25.855730 J33.952251

G02 X0.80962318743775460 Y0.445886274418861250 Z-0.100000 I-5.163587 J30.404138

G02 X0.77382345306355330 Y0.5491817343774543 Z-0.100000 I20.867661 J34.223598

G02 X0.8096358956878423 Y0.6343339979932952 Z-0.100000 I51.732502 J22.003307

G02 X0.89289624251087420 Y0.6914741168587032 Z-0.100000 I56.560029 J-2.573824

G02 X0.99967763090961730 Y0.71138974318775130 Z-0.100000 I35.492732 J-18.974946

G02 X1.100454551698405 Y0.6808460368114869 Z-0.100000 I13.940941 J-25.269619

G02 X1.14015256871622880 Y0.60431316037549070 Z-0.100000 I-15.431389 J-35.193534

G02 X1.1384083192885341 Y0.5570862693253672 Z-0.100000 I-45.100707 J-25.670664

G02 X1.12110226684458140 Y0.50682372944058060 Z-0.100000 I-44.360941 J-11.584377

G01 X1.12110226684458140 Y0.50682372944058060 Z-0.100000

G00 Z0.100000



(End cutting path id: path839)





(Start cutting path id: path839)

(Change tool to Default tool)



G00 Z0.100000

G00 X0.9926706618628800 Y0.73163700970680970



G01 Z-0.100000 F100.0(Penetrate)

G02 X0.853127550617439 Y0.6457102356300807 Z-0.100000 I-44.241634 J-3.267759 F400.000000

G02 X0.6928635908906816 Y0.70957855284570090 Z-0.100000 I-37.890670 J40.625405

G02 X0.6189543221682291 Y0.8621292289243658 Z-0.100000 I-5.653768 J41.913457

G02 X0.6945018598435878 Y1.00030360366878070 Z-0.100000 I31.830001 J35.648436

G02 X0.8356884147616419 Y1.0666194493286070 Z-0.100000 I59.245883 J6.467081

G02 X0.965371261038914 Y1.0334401034444620 Z-0.100000 I36.946592 J-21.825327

G02 X1.01407748358298640 Y0.9752856866485262 Z-0.100000 I8.409206 J-44.927010

G02 X1.0384006411529876 Y0.8984399759988271 Z-0.100000 I-15.962758 J-53.767495

G02 X1.0345811012062924 Y0.8154150735194351 Z-0.100000 I-32.804002 J-40.237565

G02 X0.9926706618628800 Y0.73163700970680970 Z-0.100000 I-37.778312 J-19.158493

G01 X0.9926706618628800 Y0.73163700970680970 Z-0.100000

G00 Z0.100000



(End cutting path id: path839)





(Start cutting path id: path839)

(Change tool to Default tool)



G00 Z0.100000

G00 X0.9926706618628800 Y0.73163700970680970



G01 Z-0.100000 F100.0(Penetrate)

G02 X0.853127550617439 Y0.6457102356300807 Z-0.100000 I-44.241634 J-3.267759 F400.000000

G02 X0.6928635908906816 Y0.70957855284570090 Z-0.100000 I-37.890670 J40.625405

G02 X0.6189543221682291 Y0.8621292289243658 Z-0.100000 I-5.653768 J41.913457

G02 X0.6945018598435878 Y1.00030360366878070 Z-0.100000 I31.830001 J35.648436

G02 X0.8356884147616419 Y1.0666194493286070 Z-0.100000 I59.245883 J6.467081

G02 X0.965371261038914 Y1.0334401034444620 Z-0.100000 I36.946592 J-21.825327

G02 X1.01407748358298640 Y0.9752856866485262 Z-0.100000 I8.409206 J-44.927010

G02 X1.0384006411529876 Y0.8984399759988271 Z-0.100000 I-15.962758 J-53.767495

G02 X1.0345811012062924 Y0.8154150735194351 Z-0.100000 I-32.804002 J-40.237565

G02 X0.9926706618628800 Y0.73163700970680970 Z-0.100000 I-37.778312 J-19.158493

G01 X0.9926706618628800 Y0.73163700970680970 Z-0.100000

G00 Z0.100000



(End cutting path id: path839)





(Start cutting path id: path839)

(Change tool to Default tool)



G00 Z0.100000

G00 X1.0065977545294490 Y0.9945639566070612



G01 Z-0.100000 F100.0(Penetrate)

G02 X0.8904485726536762 Y0.9472500684755606 Z-0.100000 I-33.662739 J0.248034 F400.000000

G02 X0.8001366442879322 Y1.0030336737241454 Z-0.100000 I-27.528940 J35.143792

G02 X0.7819391766863099 Y1.1136430165651905 Z-0.100000 I-3.763558 J40.280402

G02 X0.8594965319087173 Y1.2272001325761601 Z-0.100000 I17.725340 J26.241077

G02 X0.98549856020706840 Y1.2673921930197816 Z-0.100000 I37.671699 J2.794587

G02 X1.0564157202898654 Y1.1978301650029148 Z-0.100000 I24.967041 J-29.524893

G02 X1.06248903237856250 Y1.1014758054291074 Z-0.100000 I-5.658744 J-42.373843

G02 X1.0065977545294490 Y0.9945639566070612 Z-0.100000 I-23.487627 J-25.107575

G01 X1.0065977545294490 Y0.9945639566070612 Z-0.100000

G00 Z0.100000



(End cutting path id: path839)





(Start cutting path id: path839)

(Change tool to Default tool)



G00 Z0.100000

G00 X1.0065977545294490 Y0.9945639566070612



G01 Z-0.100000 F100.0(Penetrate)

G02 X0.8904485726536762 Y0.9472500684755606 Z-0.100000 I-33.662739 J0.248034 F400.000000

G02 X0.8001366442879322 Y1.0030336737241454 Z-0.100000 I-27.528940 J35.143792

G02 X0.7819391766863099 Y1.1136430165651905 Z-0.100000 I-3.763558 J40.280402

G02 X0.8594965319087173 Y1.2272001325761601 Z-0.100000 I17.725340 J26.241077

G02 X0.98549856020706840 Y1.2673921930197816 Z-0.100000 I37.671699 J2.794587

G02 X1.0564157202898654 Y1.1978301650029148 Z-0.100000 I24.967041 J-29.524893

G02 X1.06248903237856250 Y1.1014758054291074 Z-0.100000 I-5.658744 J-42.373843

G02 X1.0065977545294490 Y0.9945639566070612 Z-0.100000 I-23.487627 J-25.107575

G01 X1.0065977545294490 Y0.9945639566070612 Z-0.100000

G00 Z0.100000



(End cutting path id: path839)





(Start cutting path id: path839)

(Change tool to Default tool)



G00 Z0.100000

G00 X0.75042880550264990 Y0.410452709427726660



G01 Z-0.100000 F100.0(Penetrate)

G02 X0.6587758920110846 Y0.3738176057529595 Z-0.100000 I-64.261455 J-6.490069 F400.000000

G02 X0.471971975815249500 Y0.53167021711908260 Z-0.100000 I-40.747202 J26.452061

G02 X0.33409300694059135 Y0.6807453325138696 Z-0.100000 I-2.571644 J39.246534

G02 X0.29812947207290025 Y0.78275132094416320 Z-0.100000 I44.094195 J47.539399

G02 X0.417901600773431 Y0.8505158134142087 Z-0.100000 I75.961062 J27.467711

G02 X0.6077459480574758 Y0.80777400356602480 Z-0.100000 I60.899884 J-14.888782

G02 X0.7024956467864746 Y0.7323825518986264 Z-0.100000 I20.830831 J-30.099903

G02 X0.75932255311109440 Y0.62661784173609880 Z-0.100000 I-3.383175 J-37.349618

G02 X0.7752170960214694 Y0.5056455120824066 Z-0.100000 I-43.067181 J-46.180496

G02 X0.75042880550264990 Y0.410452709427726660 Z-0.100000 I-76.133627 J-27.958852

G01 X0.75042880550264990 Y0.410452709427726660 Z-0.100000

G00 Z0.100000



(End cutting path id: path839)





(Start cutting path id: path839)

(Change tool to Default tool)



G00 Z0.100000

G00 X0.75042880550264990 Y0.410452709427726660



G01 Z-0.100000 F100.0(Penetrate)

G02 X0.6587758920110846 Y0.3738176057529595 Z-0.100000 I-64.261455 J-6.490069 F400.000000

G02 X0.471971975815249500 Y0.53167021711908260 Z-0.100000 I-40.747202 J26.452061

G02 X0.33409300694059135 Y0.6807453325138696 Z-0.100000 I-2.571644 J39.246534

G02 X0.29812947207290025 Y0.78275132094416320 Z-0.100000 I44.094195 J47.539399

G02 X0.417901600773431 Y0.8505158134142087 Z-0.100000 I75.961062 J27.467711

G02 X0.6077459480574758 Y0.80777400356602480 Z-0.100000 I60.899884 J-14.888782

G02 X0.7024956467864746 Y0.7323825518986264 Z-0.100000 I20.830831 J-30.099903

G02 X0.75932255311109440 Y0.62661784173609880 Z-0.100000 I-3.383175 J-37.349618

G02 X0.7752170960214694 Y0.5056455120824066 Z-0.100000 I-43.067181 J-46.180496

G02 X0.75042880550264990 Y0.410452709427726660 Z-0.100000 I-76.133627 J-27.958852

G01 X0.75042880550264990 Y0.410452709427726660 Z-0.100000

G00 Z0.100000



(End cutting path id: path839)





(Footer)

M5

G00 X0.0000 Y1.0000

M2

(Using default footer. To add your own footer create file "footer" in the output dir.)

(end)

%
