%
(Header)
(Generated by gcodetools from Inkscape.)
(Using default header. To add your own header create file "header" in the output dir.)
M3
(Header end.)
G21 (All units in mm)

(Start cutting path id: path839)
(Change tool to Default tool)

G00 Z0.100000
G00 X200.891340 Y137.200670

G01 Z-0.100000 F100.0(Penetrate)
G02 X198.096575 Y116.384732 Z-0.100000 I-33.065426 J-6.156190 F400.000000
G02 X185.064141 Y100.448016 Z-0.100000 I-39.874555 J19.310807
G02 X166.353901 Y92.326331 Z-0.100000 I-25.855730 J33.952251
G02 X146.316710 Y95.714730 Z-0.100000 I-5.163587 J30.404138
G02 X130.298340 Y114.249649 Z-0.100000 I20.867661 J34.223598
G02 X125.871549 Y138.808544 Z-0.100000 I51.732502 J22.003307
G02 X132.500620 Y162.928557 Z-0.100000 I56.560029 J-2.573824
G02 X149.993510 Y179.950670 Z-0.100000 I35.492732 J-18.974946
G02 X175.523675 Y181.111968 Z-0.100000 I13.940941 J-25.269619
G02 X194.337610 Y163.353180 Z-0.100000 I-15.431389 J-35.193534
G02 X199.447774 Y150.794539 Z-0.100000 I-45.100707 J-25.670664
G02 X200.891340 Y137.200670 Z-0.100000 I-44.360941 J-11.584377
G01 X200.891340 Y137.200670 Z-0.100000
G00 Z0.100000

(End cutting path id: path839)


(Start cutting path id: path839)
(Change tool to Default tool)

G00 Z0.100000
G00 X200.891340 Y137.200670

G01 Z-0.100000 F100.0(Penetrate)
G02 X198.096575 Y116.384732 Z-0.100000 I-33.065426 J-6.156190 F400.000000
G02 X185.064141 Y100.448016 Z-0.100000 I-39.874555 J19.310807
G02 X166.353901 Y92.326331 Z-0.100000 I-25.855730 J33.952251
G02 X146.316710 Y95.714730 Z-0.100000 I-5.163587 J30.404138
G02 X130.298340 Y114.249649 Z-0.100000 I20.867661 J34.223598
G02 X125.871549 Y138.808544 Z-0.100000 I51.732502 J22.003307
G02 X132.500620 Y162.928557 Z-0.100000 I56.560029 J-2.573824
G02 X149.993510 Y179.950670 Z-0.100000 I35.492732 J-18.974946
G02 X175.523675 Y181.111968 Z-0.100000 I13.940941 J-25.269619
G02 X194.337610 Y163.353180 Z-0.100000 I-15.431389 J-35.193534
G02 X199.447774 Y150.794539 Z-0.100000 I-45.100707 J-25.670664
G02 X200.891340 Y137.200670 Z-0.100000 I-44.360941 J-11.584377
G01 X200.891340 Y137.200670 Z-0.100000
G00 Z0.100000

(End cutting path id: path839)


(Start cutting path id: path839)
(Change tool to Default tool)

G00 Z0.100000
G00 X145.656500 Y183.541630

G01 Z-0.100000 F100.0(Penetrate)
G02 X131.672713 Y147.832183 Z-0.100000 I-44.241634 J-3.267759 F400.000000
G02 X98.091046 Y133.072040 Z-0.100000 I-37.890670 J40.625405
G02 X64.268921 Y143.437968 Z-0.100000 I-5.653768 J41.913457
G02 X48.387244 Y176.337630 Z-0.100000 I31.830001 J35.648436
G02 X56.319694 Y213.116910 Z-0.100000 I59.245883 J6.467081
G02 X86.779356 Y233.709920 Z-0.100000 I36.946592 J-21.825327
G02 X108.197160 Y232.599885 Z-0.100000 I8.409206 J-44.927010
G02 X127.674633 Y222.303567 Z-0.100000 I-15.962758 J-53.767495
G02 X141.172001 Y205.546789 Z-0.100000 I-32.804002 J-40.237565
G02 X145.656500 Y183.541630 Z-0.100000 I-37.778312 J-19.158493
G01 X145.656500 Y183.541630 Z-0.100000
G00 Z0.100000

(End cutting path id: path839)


(Start cutting path id: path839)
(Change tool to Default tool)

G00 Z0.100000
G00 X145.656500 Y183.541630

G01 Z-0.100000 F100.0(Penetrate)
G02 X131.672713 Y147.832183 Z-0.100000 I-44.241634 J-3.267759 F400.000000
G02 X98.091046 Y133.072040 Z-0.100000 I-37.890670 J40.625405
G02 X64.268921 Y143.437968 Z-0.100000 I-5.653768 J41.913457
G02 X48.387244 Y176.337630 Z-0.100000 I31.830001 J35.648436
G02 X56.319694 Y213.116910 Z-0.100000 I59.245883 J6.467081
G02 X86.779356 Y233.709920 Z-0.100000 I36.946592 J-21.825327
G02 X108.197160 Y232.599885 Z-0.100000 I8.409206 J-44.927010
G02 X127.674633 Y222.303567 Z-0.100000 I-15.962758 J-53.767495
G02 X141.172001 Y205.546789 Z-0.100000 I-32.804002 J-40.237565
G02 X145.656500 Y183.541630 Z-0.100000 I-37.778312 J-19.158493
G01 X145.656500 Y183.541630 Z-0.100000
G00 Z0.100000

(End cutting path id: path839)


(Start cutting path id: path839)
(Change tool to Default tool)

G00 Z0.100000
G00 X102.864560 Y234.603595

G01 Z-0.100000 F100.0(Penetrate)
G02 X89.960746 Y208.350525 Z-0.100000 I-33.662739 J0.248034 F400.000000
G02 X63.696828 Y198.870014 Z-0.100000 I-27.528940 J35.143792
G02 X37.288256 Y205.626119 Z-0.100000 I-3.763558 J40.280402
G02 X23.375126 Y230.529649 Z-0.100000 I17.725340 J26.241077
G02 X36.655080 Y262.168809 Z-0.100000 I37.671699 J2.794587
G02 X68.425305 Y270.706879 Z-0.100000 I24.967041 J-29.524893
G02 X91.971470 Y259.552217 Z-0.100000 I-5.658744 J-42.373843
G02 X102.864560 Y234.603595 Z-0.100000 I-23.487627 J-25.107575
G01 X102.864560 Y234.603595 Z-0.100000
G00 Z0.100000

(End cutting path id: path839)


(Start cutting path id: path839)
(Change tool to Default tool)

G00 Z0.100000
G00 X102.864560 Y234.603595

G01 Z-0.100000 F100.0(Penetrate)
G02 X89.960746 Y208.350525 Z-0.100000 I-33.662739 J0.248034 F400.000000
G02 X63.696828 Y198.870014 Z-0.100000 I-27.528940 J35.143792
G02 X37.288256 Y205.626119 Z-0.100000 I-3.763558 J40.280402
G02 X23.375126 Y230.529649 Z-0.100000 I17.725340 J26.241077
G02 X36.655080 Y262.168809 Z-0.100000 I37.671699 J2.794587
G02 X68.425305 Y270.706879 Z-0.100000 I24.967041 J-29.524893
G02 X91.971470 Y259.552217 Z-0.100000 I-5.658744 J-42.373843
G02 X102.864560 Y234.603595 Z-0.100000 I-23.487627 J-25.107575
G01 X102.864560 Y234.603595 Z-0.100000
G00 Z0.100000

(End cutting path id: path839)


(Start cutting path id: path839)
(Change tool to Default tool)

G00 Z0.100000
G00 X140.088760 Y75.052680

G01 Z-0.100000 F100.0(Penetrate)
G02 X130.001414 Y33.394139 Z-0.100000 I-64.261455 J-6.490069 F400.000000
G02 X94.427400 Y11.542120 Z-0.100000 I-40.747202 J26.452061
G02 X65.109278 Y21.952398 Z-0.100000 I-2.571644 J39.246534
G02 X47.830375 Y48.572060 Z-0.100000 I44.094195 J47.539399
G02 X45.327575 Y95.222588 Z-0.100000 I75.961062 J27.467711
G02 X72.005111 Y132.862870 Z-0.100000 I60.899884 J-14.888782
G02 X96.138151 Y139.218736 Z-0.100000 I20.830831 J-30.099903
G02 X118.919720 Y128.736310 Z-0.100000 I-3.383175 J-37.349618
G02 X135.127969 Y104.323764 Z-0.100000 I-43.067181 J-46.180496
G02 X140.088760 Y75.052680 Z-0.100000 I-76.133627 J-27.958852
G01 X140.088760 Y75.052680 Z-0.100000
G00 Z0.100000

(End cutting path id: path839)


(Start cutting path id: path839)
(Change tool to Default tool)

G00 Z0.100000
G00 X140.088760 Y75.052680

G01 Z-0.100000 F100.0(Penetrate)
G02 X130.001414 Y33.394139 Z-0.100000 I-64.261455 J-6.490069 F400.000000
G02 X94.427400 Y11.542120 Z-0.100000 I-40.747202 J26.452061
G02 X65.109278 Y21.952398 Z-0.100000 I-2.571644 J39.246534
G02 X47.830375 Y48.572060 Z-0.100000 I44.094195 J47.539399
G02 X45.327575 Y95.222588 Z-0.100000 I75.961062 J27.467711
G02 X72.005111 Y132.862870 Z-0.100000 I60.899884 J-14.888782
G02 X96.138151 Y139.218736 Z-0.100000 I20.830831 J-30.099903
G02 X118.919720 Y128.736310 Z-0.100000 I-3.383175 J-37.349618
G02 X135.127969 Y104.323764 Z-0.100000 I-43.067181 J-46.180496
G02 X140.088760 Y75.052680 Z-0.100000 I-76.133627 J-27.958852
G01 X140.088760 Y75.052680 Z-0.100000
G00 Z0.100000

(End cutting path id: path839)


(Footer)
M5
G00 X0.0000 Y0.0000
M2
(Using default footer. To add your own footer create file "footer" in the output dir.)
(end)
%